build/img/business_card/mail.svg

<svg width="24" height="24" fill="none" xmlns="http://www.w3.org/2000/svg"><path fill-rule="evenodd" clip-rule="evenodd" d="M20 4H4c-1.1 0-1.99.9-1.99 2L2 18c0 1.1.9 2 2 2h16c1.1 0 2-.9 2-2V6c0-1.1-.9-2-2-2Zm0 13c0 .55-.45 1-1 1H5c-.55 0-1-.45-1-1V8l6.94 4.34c.65.41 1.47.41 2.12 0L20 8v9ZM4 6l8 5 8-5H4Z" fill="#EF7F1A"/></svg>

<svg width="24" height="24" viewBox="0 0 24 24" fill="none" xmlns="http://www.w3.org/2000/svg">
<path fill-rule="evenodd" clip-rule="evenodd" d="M20 4H4C2.9 4 2.01 4.9 2.01 6L2 18C2 19.1 2.9 20 4 20H20C21.1 20 22 19.1 22 18V6C22 4.9 21.1 4 20 4ZM20 17C20 17.55 19.55 18 19 18H5C4.45 18 4 17.55 4 17V8L10.94 12.34C11.59 12.75 12.41 12.75 13.06 12.34L20 8V17ZM4 6L12 11L20 6H4Z" fill="#EF7F1A"/>
</svg>
